X:27
T:Maid Of The Mill
D:Swarbrick, Lift the Lid and Listen
Z:Nigel Gatherer
M:6/8
L:1/8
K:D
G  | G2c  c>Bc | def  g2c | A2A  _BAG | c3- c2
G  | G>cc c>Bc | d>ef g2c | A>AA _BAG | c3- c  ||
ef | g>gg g>fe | f>ef f2e | def  g>ed | c3  B2
G  | G>cc c>Bc | d>ef g2c | A>AA _BAG | c3- c  ||
